icons/hand-sanitizer-line.svg

<svg xmlns="http://www.w3.org/2000/svg" width="24" height="24" fill="none"><g clip-path="url(#a)"><g><path fill="#121212" d="M17 2V4L13 3.999V6H16V8C18.21 8 20 9.79 20 12V20C20 21.105 19.105 22 18 22H6.00001C4.89501 22 4.00001 21.105 4.00001 20V12C4.00001 9.79 5.79001 8 8.00001 8V6H11V3.999L7.50001 4C6.87001 4 6.13001 4.49 5.30001 5.6L3.70001 4.4C4.87001 2.84 6.13001 2 7.50001 2H17ZM16 10H8.00001C6.89501 10 6.00001 10.895 6.00001 12V20H18V12C18 10.895 17.105 10 16 10ZM13 12V14H15V16H12.999L13 18H11L10.999 16H9.00001V14H11V12H13Z"/></g></g><defs><clipPath id="a"><rect width="24" height="24" fill="white"/></clipPath></defs></svg>

<svg width="24" height="24" fill="none" xmlns="http://www.w3.org/2000/svg"><g clip-path="url(#a)"><path d="M17 2v2l-4-.001V6h3v2c2.21 0 4 1.79 4 4v8a2 2 0 0 1-2 2H6a2 2 0 0 1-2-2v-8c0-2.21 1.79-4 4-4V6h3V3.999L7.5 4c-.63 0-1.37.49-2.2 1.6L3.7 4.4C4.87 2.84 6.13 2 7.5 2H17Zm-1 8H8a2 2 0 0 0-2 2v8h12v-8a2 2 0 0 0-2-2Zm-3 2v2h2v2h-2.001L13 18h-2l-.001-2H9v-2h2v-2h2Z" /></g><defs><clipPath id="a"><path fill="#fff" d="M0 0h24v24H0z"/></clipPath></defs></svg>
